images/bp.svg

<?xml version="1.0" encoding="UTF-8" standalone="no"?><!DOCTYPE svg PUBLIC "-//W3C//DTD SVG 1.1//EN" "http://www.w3.org/Graphics/SVG/1.1/DTD/svg11.dtd"><svg width="100%" height="100%" viewBox="0 0 57 57" version="1.1" xmlns="http://www.w3.org/2000/svg" xmlns:xlink="http://www.w3.org/1999/xlink" xml:space="preserve" xmlns:serif="http://www.serif.com/" style="fill-rule:evenodd;clip-rule:evenodd;"><circle id="cir_1" cx="28.5" cy="28.5" r="24.5" style="fill:#fafafa;"/><circle id="cir_2" cx="28.5" cy="28.5" r="22.05" style="fill:#fafafa;stroke:#000;stroke-width:2px;"/><g><path d="M25.479,12.166c-0.104,0.104 -0.178,0.268 -0.178,0.371c0,0.238 1.217,2.449 1.736,3.132c0.208,0.267 0.342,0.519 0.327,0.549c-0.074,0.059 -4.526,0.489 -7.034,0.668c-2.375,0.178 -2.85,0.356 -2.568,0.964c0.564,1.232 2.197,1.306 11.026,0.505c6.085,-0.535 9.364,-1.054 9.839,-1.529c0.386,-0.386 0.015,-0.935 -0.979,-1.395c-1.039,-0.475 -1.618,-0.489 -3.903,-0.059c-0.95,0.163 -2.167,0.356 -2.701,0.415c-0.935,0.089 -0.979,0.089 -0.89,-0.207c0.044,-0.178 0,-0.653 -0.104,-1.054c-0.223,-0.95 -0.772,-1.439 -2.271,-2.078c-1.172,-0.474 -2.003,-0.578 -2.3,-0.282Z" style="fill-rule:nonzero;"/><path d="M21.917,19.29c-0.074,0.104 -0.192,0.564 -0.252,1.009c-0.222,1.692 -0.935,2.923 -3.22,5.594c-1.336,1.559 -1.529,2.004 -0.905,2.093c0.578,0.089 2.374,-0.965 3.502,-2.033l1.068,-1.024l1.188,1.246c1.098,1.158 1.231,1.247 1.78,1.247c0.683,0 0.846,-0.089 1.099,-0.549c0.237,-0.46 0.192,-1.069 -0.134,-1.796c-0.252,-0.549 -0.416,-0.697 -1.217,-1.053c-0.519,-0.238 -1.054,-0.46 -1.202,-0.52c-0.252,-0.074 -0.237,-0.133 0.163,-0.653c0.253,-0.297 0.653,-0.742 0.906,-0.979c0.86,-0.816 0.474,-1.618 -1.173,-2.375c-0.905,-0.43 -1.365,-0.474 -1.603,-0.207Z" style="fill-rule:nonzero;"/><path d="M32.513,18.488c-0.029,0.06 -0.133,0.624 -0.222,1.262c-0.208,1.439 -0.817,3.027 -1.93,4.927c-0.474,0.816 -0.831,1.558 -0.801,1.662c0.252,0.667 1.796,-0.06 2.998,-1.395l0.697,-0.787l1.41,1.306c1.662,1.543 2.048,1.811 2.656,1.811c1.128,0 1.677,-1.737 0.846,-2.657c-0.43,-0.46 -2.152,-1.291 -3.161,-1.513c-0.445,-0.104 -0.801,-0.223 -0.801,-0.282c0,-0.06 0.371,-0.609 0.816,-1.232c0.445,-0.609 0.816,-1.247 0.816,-1.41c0,-0.43 -0.638,-1.039 -1.513,-1.439c-0.772,-0.357 -1.662,-0.49 -1.811,-0.253Z" style="fill-rule:nonzero;"/><path d="M26.711,26.146c-0.223,0.326 -0.223,0.445 -0.015,1.246c0.133,0.49 0.237,1.291 0.237,1.781l0,0.876l-1.513,0.104c-0.846,0.059 -2.33,0.207 -3.31,0.326c-0.979,0.119 -3.22,0.282 -4.971,0.356c-2.983,0.134 -3.205,0.163 -3.458,0.46c-0.222,0.282 -0.237,0.371 -0.059,0.638c0.252,0.386 1.454,1.054 2.359,1.291c0.594,0.164 0.95,0.134 2.879,-0.207c2.36,-0.431 4.868,-0.772 6.827,-0.92l1.217,-0.104l0.059,5.847c0.059,5.09 0.104,5.906 0.327,6.455c0.638,1.543 1.498,0.534 2.107,-2.493c0.178,-0.92 0.267,-2.374 0.311,-5.595c0.045,-2.374 0.089,-4.348 0.104,-4.348c0,-0.015 2.968,-0.074 6.574,-0.119c6.515,-0.089 6.575,-0.089 6.901,-0.415c0.267,-0.282 0.297,-0.386 0.148,-0.698c-0.252,-0.564 -1.216,-1.187 -2.389,-1.573l-1.039,-0.326l-2.122,0.312c-2.359,0.341 -6.336,0.756 -7.331,0.756c-0.757,0 -0.786,-0.104 -0.43,-1.276c0.326,-1.068 0.282,-1.335 -0.267,-1.751c-0.549,-0.416 -2.018,-0.979 -2.567,-0.979c-0.208,0 -0.446,0.148 -0.579,0.356Z" style="fill-rule:nonzero;"/></g></svg>

<?xml version="1.0" encoding="UTF-8" standalone="no"?>
<!DOCTYPE svg PUBLIC "-//W3C//DTD SVG 1.1//EN" "http://www.w3.org/Graphics/SVG/1.1/DTD/svg11.dtd">
<svg width="100%" height="100%" viewBox="0 0 57 57" version="1.1" xmlns="http://www.w3.org/2000/svg" xmlns:xlink="http://www.w3.org/1999/xlink" xml:space="preserve" xmlns:serif="http://www.serif.com/" style="fill-rule:evenodd;clip-rule:evenodd;">
    <g id="cir_1" transform="matrix(1.0198,0,0,1.03035,-0.0791987,-0.121408)">
        <circle cx="28.5" cy="28.5" r="24.5" style="fill:rgb(119,119,119);"/>
    </g>
    <circle id="cir_11" serif:id="cir_1" cx="28.5" cy="28.5" r="24.5" style="fill:rgb(250,250,250);"/>
    <circle id="cir_2" cx="28.5" cy="28.5" r="22.05" style="fill:rgb(250,250,250);stroke:black;stroke-width:2px;"/>
    <g>
        <path d="M25.479,12.166C25.375,12.27 25.301,12.434 25.301,12.537C25.301,12.775 26.518,14.986 27.037,15.669C27.245,15.936 27.379,16.188 27.364,16.218C27.29,16.277 22.838,16.707 20.33,16.886C17.955,17.064 17.48,17.242 17.762,17.85C18.326,19.082 19.959,19.156 28.788,18.355C34.873,17.82 38.152,17.301 38.627,16.826C39.013,16.44 38.642,15.891 37.648,15.431C36.609,14.956 36.03,14.942 33.745,15.372C32.795,15.535 31.578,15.728 31.044,15.787C30.109,15.876 30.065,15.876 30.154,15.58C30.198,15.402 30.154,14.927 30.05,14.526C29.827,13.576 29.278,13.087 27.779,12.448C26.607,11.974 25.776,11.87 25.479,12.166Z" style="fill-rule:nonzero;"/>
        <path d="M21.917,19.29C21.843,19.394 21.725,19.854 21.665,20.299C21.443,21.991 20.73,23.222 18.445,25.893C17.109,27.452 16.916,27.897 17.54,27.986C18.118,28.075 19.914,27.021 21.042,25.953L22.11,24.929L23.298,26.175C24.396,27.333 24.529,27.422 25.078,27.422C25.761,27.422 25.924,27.333 26.177,26.873C26.414,26.413 26.369,25.804 26.043,25.077C25.791,24.528 25.627,24.38 24.826,24.024C24.307,23.786 23.772,23.564 23.624,23.504C23.372,23.43 23.387,23.371 23.787,22.851C24.04,22.554 24.44,22.109 24.693,21.872C25.553,21.056 25.167,20.254 23.52,19.497C22.615,19.067 22.155,19.023 21.917,19.29Z" style="fill-rule:nonzero;"/>
        <path d="M32.513,18.488C32.484,18.548 32.38,19.112 32.291,19.75C32.083,21.189 31.474,22.777 30.361,24.677C29.887,25.493 29.53,26.235 29.56,26.339C29.812,27.006 31.356,26.279 32.558,24.944L33.255,24.157L34.665,25.463C36.327,27.006 36.713,27.274 37.321,27.274C38.449,27.274 38.998,25.537 38.167,24.617C37.737,24.157 36.015,23.326 35.006,23.104C34.561,23 34.205,22.881 34.205,22.822C34.205,22.762 34.576,22.213 35.021,21.59C35.466,20.981 35.837,20.343 35.837,20.18C35.837,19.75 35.199,19.141 34.324,18.741C33.552,18.384 32.662,18.251 32.513,18.488Z" style="fill-rule:nonzero;"/>
        <path d="M26.711,26.146C26.488,26.472 26.488,26.591 26.696,27.392C26.829,27.882 26.933,28.683 26.933,29.173L26.933,30.049L25.42,30.153C24.574,30.212 23.09,30.36 22.11,30.479C21.131,30.598 18.89,30.761 17.139,30.835C14.156,30.969 13.934,30.998 13.681,31.295C13.459,31.577 13.444,31.666 13.622,31.933C13.874,32.319 15.076,32.987 15.981,33.224C16.575,33.388 16.931,33.358 18.86,33.017C21.22,32.586 23.728,32.245 25.687,32.097L26.904,31.993L26.963,37.84C27.022,42.93 27.067,43.746 27.29,44.295C27.928,45.838 28.788,44.829 29.397,41.802C29.575,40.882 29.664,39.428 29.708,36.207C29.753,33.833 29.797,31.859 29.812,31.859C29.812,31.844 32.78,31.785 36.386,31.74C42.901,31.651 42.961,31.651 43.287,31.325C43.554,31.043 43.584,30.939 43.435,30.627C43.183,30.063 42.219,29.44 41.046,29.054L40.007,28.728L37.885,29.04C35.526,29.381 31.549,29.796 30.554,29.796C29.797,29.796 29.768,29.692 30.124,28.52C30.45,27.452 30.406,27.185 29.857,26.769C29.308,26.353 27.839,25.79 27.29,25.79C27.082,25.79 26.844,25.938 26.711,26.146Z" style="fill-rule:nonzero;"/>
    </g>
</svg>
